frontend/public/svg/interface/doc-remove.svg

<svg width="139" height="164" viewBox="0 0 139 164" fill="none" xmlns="http://www.w3.org/2000/svg">
<g clip-path="url(#clip0)">
<path d="M1.72077 81.0318C1.72077 66.6309 1.724 52.2302 1.73048 37.8289C1.67479 31.7584 2.43422 25.7079 3.98837 19.8395C4.77988 16.9129 6.01857 14.1261 7.66062 11.5779C11.3899 5.8087 16.6818 2.30784 23.5151 1.81973C33.7102 1.09437 43.93 0.571092 54.1478 0.340974C64.3657 0.110855 74.6048 0.206625 84.8284 0.428964C91.6351 0.576759 98.434 1.18092 105.232 1.61653C107.136 1.74137 108.958 2.44023 110.457 3.62133C119.783 10.8075 128.588 18.5479 135.995 27.7676C137.484 29.5048 138.302 31.7186 138.299 34.0074C138.135 64.7036 138.006 95.4003 137.91 126.097C137.815 131.401 137.261 136.686 136.254 141.895C135.888 144.134 135.073 146.277 133.857 148.193C128.778 155.792 121.871 160.639 112.541 161.621C92.1917 163.803 71.6776 163.989 51.292 162.177C43.3767 161.464 35.3623 161.505 27.6583 159.266C23.6446 158.198 19.7288 156.791 15.9529 155.061C7.88674 151.131 3.23617 144.416 2.0298 135.567C1.49775 131.052 1.25646 126.509 1.30742 121.964C1.21995 108.321 1.27566 94.673 1.27566 81.0318H1.72077ZM12.6986 81.9588C11.5972 97.8246 11.5836 113.709 11.5564 129.592C11.6122 131.859 11.8261 134.12 12.1965 136.358C13.3083 144.359 18.006 149.232 25.5934 151.526C26.3158 151.744 27.0525 151.926 27.7963 152.071C32.9872 153.087 38.1463 154.256 43.4752 154.392C54.4342 154.67 65.3926 155.35 76.3482 155.296C87.6817 155.24 99.0295 154.769 110.337 153.992C119.101 153.39 124.773 148.158 127.376 139.702C128.966 134.542 129.01 129.271 129.01 123.973C129.01 99.0089 129.006 74.0446 128.997 49.081C128.997 46.0603 128.887 43.0393 128.778 40.0199C128.705 39.2743 128.377 38.5769 127.849 38.0455C127.321 37.514 126.627 37.1811 125.882 37.1029C120.217 36.9084 114.544 36.8551 108.889 36.5147C106.645 36.3176 104.435 35.8446 102.307 35.1063C101.591 34.8447 100.954 34.4002 100.463 33.8168C99.9708 33.2333 99.6398 32.5312 99.5031 31.7803C99.1785 30.3044 99.0113 28.7977 99.0042 27.2865C98.964 22.3749 99.0301 17.4631 99.0411 12.5515C98.9776 11.8099 98.6634 11.1117 98.1496 10.5733C97.6365 10.0347 96.9543 9.68785 96.217 9.58951C95.8419 9.5584 95.4706 9.44217 95.0974 9.43699C76.952 9.18223 58.8081 8.90065 40.6621 8.71785C37.2588 8.64214 33.8548 8.83459 30.4818 9.29392C27.1278 9.81315 23.8271 10.633 20.6197 11.7431C17.2507 12.8917 14.9571 15.4377 13.5804 18.7222C12.3132 21.4839 11.8354 24.5426 12.1997 27.5593C12.7824 31.2957 13.1005 35.0687 13.1515 38.85C13.1055 53.2185 12.8658 67.589 12.6979 81.9588H12.6986ZM109.476 17.7613C108.915 20.6205 108.7 23.5365 108.837 26.4471C108.637 27.7481 110.161 28.6709 111.072 28.6709C114.265 28.6709 116.993 28.6409 119.948 28.5683C120.133 28.5638 120.419 28.1339 120.458 27.8714C120.53 27.5074 120.468 27.1298 120.282 26.8085C117.526 23.2829 114.438 20.1003 110.564 17.779C110.311 17.626 109.807 17.4294 109.476 17.7613Z" fill="black"/>
<path d="M68.2814 98.9763C75.828 98.8252 83.3772 98.5971 90.9205 98.5588C94.307 98.5413 97.7007 98.8441 101.081 99.128C102.208 99.2278 103.306 99.5461 104.312 100.065C104.837 100.278 105.287 100.64 105.607 101.108C105.928 101.574 106.103 102.125 106.113 102.692C106.093 103.651 105.089 105.059 104.242 105.22C102.796 105.601 101.318 105.857 99.8283 105.987C82.8472 106.308 65.8654 106.621 48.8822 106.789C45.112 106.727 41.3482 106.452 37.6091 105.965C36.5316 105.853 35.506 105.216 34.4642 104.798C33.5474 104.432 32.8192 102.869 33.2643 101.959C33.5818 101.311 33.9647 100.332 34.4895 100.205C36.6475 99.5934 38.8671 99.2246 41.1069 99.1072C50.1644 98.9893 59.2245 99.0586 68.2833 99.0586L68.2814 98.9763Z" fill="black"/>
</g>
<defs>
<clipPath id="clip0">
<rect width="138" height="164" fill="white" transform="translate(0.777344)"/>
</clipPath>
</defs>
</svg>

<svg xmlns="http://www.w3.org/2000/svg" width="139" height="164" fill="none" viewBox="0 0 139 164"><g fill="#000" clip-path="url(#a)"><path d="M1.72 81.032q0-21.601.01-43.203a67.8 67.8 0 0 1 2.258-17.99 29.4 29.4 0 0 1 3.673-8.261c3.729-5.77 9.02-9.27 15.854-9.758C33.71 1.094 43.93.57 54.148.34s20.457-.134 30.68.088c6.807.148 13.606.752 20.404 1.188a9.44 9.44 0 0 1 5.225 2.004c9.326 7.186 18.131 14.927 25.538 24.147a9.57 9.57 0 0 1 2.304 6.24q-.245 46.044-.389 92.089a92 92 0 0 1-1.656 15.798 16.8 16.8 0 0 1-2.397 6.298c-5.079 7.599-11.986 12.446-21.316 13.428a314 314 0 0 1-61.249.556c-7.915-.713-15.93-.672-23.634-2.911a73.4 73.4 0 0 1-11.705-4.205c-8.066-3.93-12.717-10.645-13.923-19.494a106 106 0 0 1-.723-13.603c-.087-13.643-.031-27.291-.031-40.932zm10.979.927c-1.102 15.866-1.115 31.75-1.143 47.633.056 2.267.27 4.528.64 6.766 1.112 8.001 5.81 12.874 13.397 15.168.723.218 1.46.4 2.203.545 5.191 1.016 10.35 2.185 15.68 2.321 10.958.278 21.917.958 32.872.904 11.334-.056 22.682-.527 33.989-1.304 8.764-.602 14.436-5.834 17.039-14.29 1.59-5.16 1.634-10.431 1.634-15.729q0-37.446-.013-74.892c0-3.02-.11-6.042-.219-9.061a3.25 3.25 0 0 0-2.896-2.917c-5.665-.195-11.338-.248-16.993-.588a27.4 27.4 0 0 1-6.582-1.409 4.37 4.37 0 0 1-2.804-3.326 21.4 21.4 0 0 1-.499-4.494c-.04-4.911.026-9.823.037-14.734a3.27 3.27 0 0 0-2.824-2.962c-.375-.032-.746-.148-1.12-.153-18.145-.255-36.289-.536-54.435-.72a65 65 0 0 0-10.18.577 56.7 56.7 0 0 0-9.862 2.45c-3.37 1.148-5.663 3.694-7.04 6.978a16.46 16.46 0 0 0-1.38 8.837c.582 3.737.9 7.51.952 11.291-.046 14.368-.286 28.739-.454 43.109m96.777-64.198a36.3 36.3 0 0 0-.639 8.686c-.2 1.301 1.324 2.224 2.235 2.224 3.193 0 5.921-.03 8.876-.103.185-.004.471-.434.51-.697.072-.364.01-.741-.176-1.062-2.756-3.526-5.844-6.709-9.718-9.03-.253-.153-.757-.35-1.088-.018"/><path d="M68.281 98.976c7.547-.15 15.096-.379 22.64-.417 3.386-.018 6.78.285 10.16.569a8.7 8.7 0 0 1 3.231.937c.525.213.975.575 1.295 1.043a2.9 2.9 0 0 1 .506 1.584c-.02.959-1.024 2.367-1.871 2.528a26.3 26.3 0 0 1-4.414.767c-16.98.321-33.963.634-50.946.802-3.77-.062-7.534-.337-11.273-.824-1.077-.112-2.103-.749-3.145-1.167-.917-.366-1.645-1.929-1.2-2.839.318-.648.7-1.627 1.225-1.754a30 30 0 0 1 6.618-1.098c9.057-.118 18.118-.048 27.176-.048z"/></g><defs><clipPath id="a"><path fill="#fff" d="M.777 0h138v164h-138z"/></clipPath></defs></svg>
